X:7122
T:Hobo's Jig
Z:Added by alf.warnock@nrc.ca
M:6/8
L:1/8
K:A
+e3A3+|+ec+ee e2e|{g}fec ef/2g/2a|geg efg|aga fed|
+ec+ee e2e|{g}fec ef/2g/2a|gag efg|1 {g}+a3A3 +a2e c||2 aAA =gAA|
K:D
:|faf edc|dAF {c}BAF|+GA+FG +AE+FG|{c}BAF Ade|
faf edc|"To Coda"dAF AB/2c/2d|cec ABc|1 edc d2A:|2 edc d2+eA+||
"Coda"dAF A2 +de+|+ce+BA +GA+FE|D3 +D3A3+|]


